!!!!SEGMENT: pl-sa--l-1643--080_anonim--tua-est-potentia.krn
!!!cenid: 16xx:1438
!!!COM: Anonim
!!!COM-rismid: pe30004985
!!!CDT:
!!!CNT:
!!!OTL: Tua est potentia
!!!PDT:
!!!AGN: Sacred
!!!SMS-siglum: PL-SA
!!!SMS-shelfmark: L 1643
!!!SMS-shelfwork: 080 W
!!!SMS-variant:
!!!SMS-altvar:
!!!NIFC-rismid: 1001064769
!!!URL-scan: http://repozytorium.nifc.pl/skany/pl-sa-nut--l1643
!!!ONB-nifc: UWAGA: 8 ksiąg. Primi chori: 1mus Cantus (x), C 2dus (126-127, od słów „Tuum regnum”), C 3tius (x), Bassus (x); Secondi chori: Primus Cantus (x), C 2dus (x), Altus (x), Bassus (119-120). UWAGA: Nie dodawać pustych linii, chyba że w rękopisie pojawiają się dodatkowe oznaczenia dotyczące pełnej obsady (a 4, a 8 itp.)
!!!key:
**kern	**text	**kern	**text
*part2	*part2	*part1	*part1
*staff2	*staff2	*staff1	*staff1
*Iempty	*	*Iempty	*
*I"Bassus 2di Chori	*	*I"Cantus 2dus Primi Chori	*
*I'Coro 2 B	*	*I'Coro 1 S 2	*
*clefC3	*	*clefC1	*
*k[]	*	*k[]	*
*c:	*	*c:	*
*M2/2	*	*M2/2	*
*met(C|)	*	*met(C|)	*
=1-	=1-	=1-	=1-
!LO:TX:a:t=Tua eſt\nPotencia	!	!	!
00r	.	00r	.
=2-	=2-	=2-	=2-
.	.	.	.
=3-	=3-	=3-	=3-
.	.	.	.
=4-	=4-	=4-	=4-
.	.	.	.
=5-	=5-	=5-	=5-
2r	.	2r	.
1g\	Tu-	1b\	Tu-
=6-	=6-	=6-	=6-
.	.	.	.
2g\	-um	2b\	-um
=7-	=7-	=7-	=7-
2c/	reg-	2cc\	reg-
2g\	-num	2b\	-num
=8-	=8-	=8-	=8-
2.d\	Do-	2.a\	do-
4d\	-mi-	4a\	-mi-
=9-	=9-	=9-	=9-
!LO:SIC:v:t=custos c	!	!	!
2g\	-ne	2b\	-ne
!LO:LB:g=original	!	!	!
2r	.	2r	.
=10-	=10-	=10-	=10-
0r	.	0r	.
=11-	=11-	=11-	=11-
.	.	.	.
=12-	=12-	=12-	=12-
1r	.	1r	.
=13-	=13-	=13-	=13-
2r	.	2r	.
1c\	tu-	1cc\	tu-
=14-	=14-	=14-	=14-
.	.	.	.
2g\	-um	2b\	-um
=15-	=15-	=15-	=15-
2c/	reg-	2cc\	reg-
2c/	-num	2cc\	-num
=16-	=16-	=16-	=16-
2.g\	Do-	2.dd\	do-
4g\	-mi-	4dd\	-mi-
=17-	=17-	=17-	=17-
2c/	-ne	2cc\	-ne
2r	.	2r	.
=18-	=18-	=18-	=18-
0r	.	0r	.
=19-	=19-	=19-	=19-
.	.	.	.
=20-	=20-	=20-	=20-
1r	.	1r	.
=21-	=21-	=21-	=21-
2r	.	2r	.
1c\	tu-	1cc\	tu-
=22-	=22-	=22-	=22-
.	.	.	.
2c/	-um	2cc\	-um
=23-	=23-	=23-	=23-
2f\	re-	4a\	re-
.	.	4b\	.
!	!	!LO:SIC:v:t=custos b	!
!	!	!LO:SIC:b:v:t=custos domi	!
2c/	-gnum	2cc\	-gnum
!	!	!LO:LB:g=original	!
=24-	=24-	=24-	=24-
2.g\	Do-	2.b\	do-
4g\	-mi-	4b\	-mi-
=25-	=25-	=25-	=25-
2c/	-ne	2cc\	-ne
1c\	tu-	1cc\	tu-
=26-	=26-	=26-	=26-
.	.	.	.
2c/	-um	2cc\	-um
=27-	=27-	=27-	=27-
2F/	re-	2a\	re-
!LO:SIC:v:t=custos G	!	!	!
2c/	-gnum	2cc\	-gnum
!LO:LB:g=original	!	!	!
=28-	=28-	=28-	=28-
2.G/	Do-	2.dd\	do-
4G/	-mi-	4dd\	-mi-
=29-	=29-	=29-	=29-
2c/	-ne	2cc\	-ne,
2r	.	2r	.
=30-	=30-	=30-	=30-
00r	.	00r	.
=31-	=31-	=31-	=31-
.	.	.	.
=32-	=32-	=32-	=32-
.	.	.	.
=33-	=33-	=33-	=33-
.	.	.	.
=34-	=34-	=34-	=34-
2r	.	2r	.
1g\	tu	1b\	tu
=35-	=35-	=35-	=35-
.	.	.	.
2g\	es	2b\	es
=36-	=36-	=36-	=36-
2c/	ſu-	2cc\	ſu-
2g\	-per	2b\	-per
=37-	=37-	=37-	=37-
2c/	om-	2cc\	om-
2g\	-nes	2b\	-nes
=38-	=38-	=38-	=38-
1d	gen-	1a	gen-
=39-	=39-	=39-	=39-
1g	-tes	1b	-tes
=40-	=40-	=40-	=40-
*M3/2	*	*M3/2	*
2g\	Da	0.r	.
!LO:TX:b:t=P:problem:# below	!	!	!
2f#X\	pa-	.	.
2g\	-cem	.	.
=41-	=41-	=41-	=41-
2.c/	Do-	.	.
4c/	-mi-	.	.
2c/	-ne	.	.
=42-	=42-	=42-	=42-
2G/	da	2b\	Da
!LO:SIC:v:t=custos G	!	!	!
2d\	Pa-	2a\	pa-
!LO:LB:g=original	!	!LO:SIC:v:t=custos cc	!
2G/	-cem	2b\	-cem
!	!	!LO:LB:g=original	!
=43-	=43-	=43-	=43-
2.c/	Do-	2.cc\	do-
4c/	-mi-	4cc\	-mi-
2c/	-ne	2cc\	-ne
=44-	=44-	=44-	=44-
!LO:TX:t=P:problem:wysokość dźwięku zamazana	!	!	!
2a\	da	2cc\	da
2e\	pa-	2b\	pa-
2a\	-cem	2cc\	-cem
=45-	=45-	=45-	=45-
2.d\	Do-	2.a\	do-
4d\	-mi-	4a\	-mi-
2d\	-ne	2dd,<\	-ne
=46-	=46-	=46-	=46-
2g\	in	2dd\	in
2g\	di-	2b\	di-
2c/	-e-	2cc\	-e-
=47-	=47-	=47-	=47-
2g\	-bus	2b\	-bus
1d	nos-	1a	noſ-
=48-	=48-	=48-	=48-
!LO:N:vis=1	!	!LO:N:vis=1	!
1.g	-tris	1.b	-tris
=49-	=49-	=49-	=49-
*M2/2	*	*M2/2	*
*met(C|)	*	*met(C|)	*
0r	.	0r	.
=50-	=50-	=50-	=50-
.	.	.	.
=51-	=51-	=51-	=51-
1r	.	1r	.
=52-	=52-	=52-	=52-
2r	.	2r	.
1d\	De-	1dd\	De-
=53-	=53-	=53-	=53-
.	.	.	.
!LO:TX:t=P:problem:błędy rytmiczne w całym głosie [zakończenia 1 zamiast 2]	!	!	!
!LO:N:vis=1	!	!LO:TX:b:t=P:problem:# below	!
2a\	-us	2cc#X\	-us
=54-	=54-	=54-	=54-
0r	.	0r	.
=55-	=55-	=55-	=55-
.	.	.	.
=56-	=56-	=56-	=56-
2r	.	2r	.
!LO:SIC:v:t=custos a	!	!	!
2d\	et	1dd\	et
!LO:PB:g=original	!	!	!
=57-	=57-	=57-	=57-
1a	for-	.	.
!	!	!LO:TX:b:t=P:problem:# below	!
.	.	2cc#X\	for-
=58-	=58-	=58-	=58-
2d\	-tis	2dd\	-tis
!	!	!LO:SIC:v:t=custos cc	!
1d\	ius-	1dd\	ius-
!	!	!LO:LB:g=original	!
=59-	=59-	=59-	=59-
.	.	.	.
!LO:N:vis=1	!	!LO:TX:b:t=P:problem:# below	!
2a\	-tus	2cc#X\	-tus
=60-	=60-	=60-	=60-
0r	.	0r	.
=61-	=61-	=61-	=61-
.	.	.	.
=62-	=62-	=62-	=62-
1r	.	1r	.
=63-	=63-	=63-	=63-
2r	.	2r	.
1d\	ius-	1dd\	iuſ-
=64-	=64-	=64-	=64-
.	.	.	.
!LO:N:vis=1	!	!LO:TX:b:t=P:problem:# below	!
2a\	-tus	2cc#X\	-tus
=65-	=65-	=65-	=65-
0r	.	0r	.
=66-	=66-	=66-	=66-
.	.	.	.
=67-	=67-	=67-	=67-
1r	.	1r	.
=68-	=68-	=68-	=68-
2r	.	2r	.
2g\	et	2b\	et
=69-	=69-	=69-	=69-
2c/	mi-	2ccny\	mi-
2g\	-ſe-	2b\	-se-
=70-	=70-	=70-	=70-
1d	-ri-	1a	-ri-
=71-	=71-	=71-	=71-
2g\	-cors	2b\	-cors
1d\	ius-	1dd\	iuſ-
=72-	=72-	=72-	=72-
.	.	.	.
!	!	!LO:TX:b:t=P:problem:# below	!
2a\	-tus	2cc#X\	-tus
=73-	=73-	=73-	=73-
0r	.	0r	.
=74-	=74-	=74-	=74-
.	.	.	.
=75-	=75-	=75-	=75-
1r	.	1r	.
=76-	=76-	=76-	=76-
2r	.	2r	.
2g\	et	2b\	et
=77-	=77-	=77-	=77-
2c/	mi-	2ccny\	mi-
2g\	-ſe-	2b\	-se-
=78-	=78-	=78-	=78-
1d	-ri-	1a	-ri-
=79-	=79-	=79-	=79-
1g	-cors	1b	-cors
=80-	=80-	=80-	=80-
00r	.	00r	.
=81-	=81-	=81-	=81-
.	.	.	.
=82-	=82-	=82-	=82-
.	.	.	.
=83-	=83-	=83-	=83-
.	.	.	.
=84-	=84-	=84-	=84-
0r	.	0r	.
=85-	=85-	=85-	=85-
.	.	.	.
=86-	=86-	=86-	=86-
!LO:SIC:v:t=custos c	!	!	!
2r	.	2r	.
!LO:LB:g=original	!	!	!
2c/	in	2cc\	in
=87-	=87-	=87-	=87-
1g	di-	2.b\	di-
.	.	4a\	.
=88-	=88-	=88-	=88-
4c/	-e-	2g/	-e-
4d\	.	.	.
!	!	!LO:SIC:v:t=custos dd	!
4e\	-bus	2cc\	-bus
4fny\	.	.	.
!	!	!LO:LB:g=original	!
=89-	=89-	=89-	=89-
1g	noſ-	1dd	noſ-
=90-	=90-	=90-	=90-
1c	-tris	1cc	-tris,
=91-	=91-	=91-	=91-
00r	.	00r	.
=92-	=92-	=92-	=92-
.	.	.	.
=93-	=93-	=93-	=93-
.	.	.	.
=94-	=94-	=94-	=94-
.	.	.	.
=95-	=95-	=95-	=95-
0r	.	0r	.
=96-	=96-	=96-	=96-
.	.	.	.
=97-	=97-	=97-	=97-
2r	.	2r	.
2c/	in	2cc\	in
=98-	=98-	=98-	=98-
1c	di-	1cc	di-
=99-	=99-	=99-	=99-
2f\	-e-	4a\	-e-
.	.	4b\	.
2c/	-bus	2.cc\	-bus
=100-	=100-	=100-	=100-
1g	noſ-	.	.
.	.	8b\L	.
.	.	8a\J	.
.	.	2b\	noſ-
=101-	=101-	=101-	=101-
2c/	-tris	2cc,<\	-tris
2g\	in	2b\	in
=102-	=102-	=102-	=102-
1g	di-	1b	di-
=103-	=103-	=103-	=103-
2c/	-e-	2cc\	-e-
2g\	-bus	2b\	-bus
=104-	=104-	=104-	=104-
1d	nos-	1a	noſ-
=105-	=105-	=105-	=105-
1g	-tris	1b	-tris
=106-	=106-	=106-	=106-
0r	.	0r	.
=107-	=107-	=107-	=107-
.	.	.	.
=108-	=108-	=108-	=108-
1r	.	1r	.
=109-	=109-	=109-	=109-
2r	.	2r	.
!LO:SIC:v:t=custos a	!	!	!
1d\	De-	1dd\	De-
=110-	=110-	=110-	=110-
.	.	.	.
!LO:LB:g=original	!	!LO:TX:b:t=P:problem:# below	!
2a\	-us	2cc#X\	-us
=111-	=111-	=111-	=111-
0r	.	0r	.
=112-	=112-	=112-	=112-
.	.	.	.
=113-	=113-	=113-	=113-
2r	.	2r	.
2d/	et	1dd\	et
=114-	=114-	=114-	=114-
1a	for-	.	.
!	!	!LO:TX:b:t=P:problem:# below	!
!	!	!LO:SIC:v:t=custos dd	!
.	.	2cc#X\	for-
!	!	!LO:LB:g=original	!
=115-	=115-	=115-	=115-
2d\	-tis	2dd\	-tis
1d\	ius-	1dd\	iuſ-
=116-	=116-	=116-	=116-
.	.	.	.
!LO:N:vis=1	!	!	!
2a\	-tus	2ccny\	-tus
=117-	=117-	=117-	=117-
0r	.	0r	.
=118-	=118-	=118-	=118-
.	.	.	.
=119-	=119-	=119-	=119-
1r	.	1r	.
=120-	=120-	=120-	=120-
2r	.	2r	.
1d\	ius-	1dd\	iuſ-
=121-	=121-	=121-	=121-
.	.	.	.
!LO:N:vis=1	!	!LO:TX:b:t=P:problem:# below	!
2a\	-tus	2cc#X\	-tus
=122-	=122-	=122-	=122-
0r	.	0r	.
=123-	=123-	=123-	=123-
.	.	.	.
=124-	=124-	=124-	=124-
1r	.	1r	.
=125-	=125-	=125-	=125-
2r	.	2r	.
2g\	et	2b\	et
=126-	=126-	=126-	=126-
2c/	mi-	2ccny\	mi-
2g\	ſe-	2b\	-se-
=127-	=127-	=127-	=127-
1d	-ri-	1a	-ri-
=128-	=128-	=128-	=128-
2g\	-cors	2b\	-cors
1d\	ius-	1dd\	iuſ-
=129-	=129-	=129-	=129-
.	.	.	.
!	!	!LO:TX:b:t=P:problem:# below	!
2a\	-tus	2cc#X\	-tus
=130-	=130-	=130-	=130-
0r	.	0r	.
=131-	=131-	=131-	=131-
.	.	.	.
=132-	=132-	=132-	=132-
1r	.	1r	.
=133-	=133-	=133-	=133-
2r	.	2r	.
2g\	et	2b\	et
=134-	=134-	=134-	=134-
2c/	mi-	2ccny\	mi-
2g\	ſe-	2b\	-se-
=135-	=135-	=135-	=135-
1d	-ri-	1a	-ri-
=136-	=136-	=136-	=136-
!LO:SIC:v:t=custos g	!	!	!
1g	-cors	1b	-cors
!LO:LB:g=original	!	!	!
=137-	=137-	=137-	=137-
*M3/2	*	*M3/2	*
2g\	Da	0.r	.
!LO:TX:b:t=P:problem:# below	!	!	!
2f#X\	pa-	.	.
2g\	-cem	.	.
=138-	=138-	=138-	=138-
2.c/	Do-	.	.
4c/	-mi-	.	.
2c/	-ne	.	.
=139-	=139-	=139-	=139-
2G/	da	2b\	Da-
!	!	!LO:SIC:v:t=custos b	!
2d\	pa-	2a\	-pa-
!	!	!LO:LB:g=original	!
2G/	-cem	2b\	-cem
=140-	=140-	=140-	=140-
2.c/	Do-	2.cc\	do-
4c/	-mi-	4cc\	-mi-
2c/	-ne	2cc,<\	-ne
=141-	=141-	=141-	=141-
2a\	da	2cc\	da
2e\	pa-	2b\	pa-
2a\	-cem	2cc\	-cem
=142-	=142-	=142-	=142-
2.d\	Do-	2a\	do-
.	.	2a\	-mi-
4d\	-mi-	.	.
2d\	-ne	2dd\	-ne
=143-	=143-	=143-	=143-
2g\	in	2dd\	in
2g\	di-	2b\	di-
2c/	-e-	2cc\	-e-
=144-	=144-	=144-	=144-
!LO:SIC:v:t=custos d	!	!	!
2g\	-bus	2b\	-bus
!LO:LB:g=original	!	!	!
1d	nos-	1a	noſ-
=145-	=145-	=145-	=145-
!LO:N:vis=1	!	!LO:N:vis=1	!
1.g	-tris	1.b	-tris,
=146-	=146-	=146-	=146-
*M2/2	*	*M2/2	*
*met(C|)	*	*met(C|)	*
2g\	in	2b\	in
2g\	di-	2b\	di-
=147-	=147-	=147-	=147-
2c/	-e-	2cc\	-e-
2g\	-bus	2b\	-bus
=148-	=148-	=148-	=148-
0c	.	0cc	noſ-
=149-	=149-	=149-	=149-
.	.	.	.
=150-	=150-	=150-	=150-
1gl;;	.	1bl;;	-tris;
==	==	==	==
*-	*-	*-	*-
!!!system-decoration: [(s1)][(s2)]
!!!RDF**kern: < = below
!!!RDF**kern: l = terminal long
!!!AIN: 2 empty
!!!ENC: Andrzej Gręziak
!!!END: 2021-10-20
!!!ENC: Andrzej Kubiczek
!!!END: 2021-10-23
